X:1

T:Barney Leave the Girls Alone

M:2/4

L:1/8

R:Reel
S:Harding’s All-Round Collection, No. 70  (1905)

Z:AK/Fiddler’s Companion

K:C

g/a/a/f/ e/c/c/B/|A/d/d/c/ B/A/G|g/a/g/f/ e/c/c/B/|AB cz:|

|:e/c/f/d/ e/c/c/B/|A/d/d/c/ B/G/G/d/|e/c/f/d/ e/c/c/B/|AB cz:|

 

BARNEY O'FINNIGAN. Irish, Slow Air (6/8 time). G Major. Standard tuning. AB. O'Neill (Music of Ireland: 1850 Melodies), 1903/1978; No. 46, pg. 8.

